packages/core/src/svg/ui/lightbulb.svg

<svg width="24" height="24" viewBox="0 0 24 24" fill="none" xmlns="http://www.w3.org/2000/svg">
<path fill-rule="evenodd" clip-rule="evenodd" d="M4 9C4 11.5264 5.17107 13.7793 7 15.2454L8 16H16L17 15.2454C18.8289 13.7793 20 11.5264 20 9C20 4.58172 16.4183 1 12 1C7.58172 1 4 4.58172 4 9ZM15.7477 13.5C17.1207 12.4425 18 10.8958 18 9C18 5.68629 15.3137 3 12 3C8.68629 3 6 5.68629 6 9C6 10.8958 6.87929 12.4425 8.2523 13.5H15.7477Z" fill="currentColor"/>
<path d="M16 17V19H8V17H16Z" fill="currentColor"/>
<path d="M15.5 20V22H8.5V20H15.5Z" fill="currentColor"/>
</svg>

<svg xmlns="http://www.w3.org/2000/svg" viewBox="0 0 24 24"><g fill="none" fill-rule="evenodd"><path d="M0 0h24v24H0z"/><path clip-rule="evenodd" d="M4 9a7.985 7.985 0 003 6.245L8 16h8l1-.755A8 8 0 104 9zm11.748 4.5C17.12 12.443 18 10.896 18 9A6 6 0 006 9c0 1.896.88 3.443 2.252 4.5h7.496z" fill="currentColor"/><path d="M16 17v2H8v-2h8zM15.5 20v2h-7v-2h7z" fill="currentColor"/></g></svg>
